img/icons/point.svg

<svg width="16" height="20" viewBox="0 0 16 20" fill="none" xmlns="http://www.w3.org/2000/svg">
<path d="M14.3076 7.5C14.3076 8.31613 13.975 9.45576 13.367 10.7845C12.7708 12.0876 11.9571 13.4725 11.1023 14.746C10.2479 16.0189 9.36838 17.157 8.6522 17.967C8.31529 18.348 8.0285 18.6406 7.80762 18.8371C7.58674 18.6406 7.29994 18.348 6.96304 17.967C6.24685 17.157 5.36731 16.0189 4.51292 14.746C3.65816 13.4725 2.84439 12.0876 2.24821 10.7845C1.64026 9.45576 1.30762 8.31613 1.30762 7.5C1.30762 3.91015 4.21777 1 7.80762 1C11.3975 1 14.3076 3.91015 14.3076 7.5ZM7.5155 19.0623C7.51568 19.0618 7.522 19.058 7.53392 19.0526C7.52129 19.0601 7.51533 19.0628 7.5155 19.0623ZM8.08131 19.0526C8.09327 19.058 8.09958 19.0618 8.09973 19.0623C8.09988 19.0628 8.09392 19.0601 8.08131 19.0526Z" stroke="#A5B4C2" stroke-width="2"/>
<circle cx="7.80762" cy="7.5" r="1.5" stroke="#A5B4C2" stroke-width="2"/>
</svg>

<svg width="16" height="20" fill="none" xmlns="http://www.w3.org/2000/svg"><path d="M14.308 7.5c0 .816-.333 1.956-.941 3.284-.596 1.304-1.41 2.688-2.265 3.962-.854 1.273-1.734 2.411-2.45 3.221-.337.381-.623.674-.844.87a10.65 10.65 0 01-.845-.87c-.716-.81-1.596-1.948-2.45-3.221-.855-1.274-1.669-2.658-2.265-3.962-.608-1.328-.94-2.468-.94-3.284a6.5 6.5 0 0113 0zM7.516 19.062l.018-.01a.092.092 0 01-.018.01zm.565-.01l.019.01a.09.09 0 01-.019-.01z" stroke="#A5B4C2" stroke-width="2"/><circle cx="7.808" cy="7.5" r="1.5" stroke="#A5B4C2" stroke-width="2"/></svg>
